assets/linkedin-solid.svg

<svg xmlns="http://www.w3.org/2000/svg" viewBox="0 0 448 512"><!--!Font Awesome Free 6.6.0 by @fontawesome - https://fontawesome.com License - https://fontawesome.com/license/free Copyright 2024 Fonticons, Inc.--><path d="M416 32H31.9C14.3 32 0 46.5 0 64.3v383.4C0 465.5 14.3 480 31.9 480H416c17.6 0 32-14.5 32-32.3V64.3c0-17.8-14.4-32.3-32-32.3zM135.4 416H69V202.2h66.5V416zm-33.2-243c-21.3 0-38.5-17.3-38.5-38.5S80.9 96 102.2 96c21.2 0 38.5 17.3 38.5 38.5 0 21.3-17.2 38.5-38.5 38.5zm282.1 243h-66.4V312c0-24.8-.5-56.7-34.5-56.7-34.6 0-39.9 27-39.9 54.9V416h-66.4V202.2h63.7v29.2h.9c8.9-16.8 30.6-34.5 62.9-34.5 67.2 0 79.7 44.3 79.7 101.9V416z"/></svg>

<svg width="448" height="512" viewBox="0 0 448 512" fill="none" xmlns="http://www.w3.org/2000/svg">
<path d="M416 32H31.9C14.3 32 0 46.5 0 64.3V447.7C0 465.5 14.3 480 31.9 480H416C433.6 480 448 465.5 448 447.7V64.3C448 46.5 433.6 32 416 32ZM135.4 416H69V202.2H135.5V416H135.4ZM102.2 173C80.9 173 63.7 155.7 63.7 134.5C63.7 113.3 80.9 96 102.2 96C123.4 96 140.7 113.3 140.7 134.5C140.7 155.8 123.5 173 102.2 173ZM384.3 416H317.9V312C317.9 287.2 317.4 255.3 283.4 255.3C248.8 255.3 243.5 282.3 243.5 310.2V416H177.1V202.2H240.8V231.4H241.7C250.6 214.6 272.3 196.9 304.6 196.9C371.8 196.9 384.3 241.2 384.3 298.8V416Z" fill="#2250E7"/>
</svg>
